icons/inbox-arrow-right-outline.svg

<svg xmlns="http://www.w3.org/2000/svg" width="24" height="24" viewBox="0 0 24 24">
  <path d="M19,2 C20.5976809,2 21.9036609,3.24891996 21.9949073,4.82372721 L22,5 L22,19 C22,20.5976809 20.75108,21.9036609 19.1762728,21.9949073 L19,22 L5,22 C3.40231912,22 2.09633912,20.75108 2.00509269,19.1762728 L2,19 L2,5 C2,3.40231912 3.24891996,2.09633912 4.82372721,2.00509269 L5,2 L19,2 Z M19,4 L5,4 C4.48716416,4 4.06449284,4.38604019 4.00672773,4.88337887 L4,5 L4,14 L6,14 C7.1045695,14 8,14.8954305 8,16 C8,17.1045695 8.8954305,18 10,18 L14,18 C15.1045695,18 16,17.1045695 16,16 C16,14.8954305 16.8954305,14 18,14 L20,14 L20,5 C20,4.48716416 19.6139598,4.06449284 19.1166211,4.00672773 L19,4 Z M15.767,9.359 L15.7803112,9.37455101 L15.7837744,9.37889067 L15.779,9.374 L15.8036654,9.40469339 L15.8036654,9.40469339 C15.8215099,9.42886931 15.8382813,9.45372505 15.8539326,9.47933981 L15.8753288,9.5159379 L15.8753288,9.5159379 C15.8862061,9.53570605 15.8966234,9.5561086 15.9063462,9.57690085 L15.9287745,9.62866398 L15.9287745,9.62866398 C15.9366843,9.6484208 15.9438775,9.66820232 15.9504533,9.68826359 C15.9552713,9.70314866 15.9599023,9.71853672 15.9641549,9.73400703 C15.9701664,9.75556352 15.9753602,9.77725392 15.9798348,9.7992059 C15.9832978,9.81662474 15.9863719,9.83405099 15.9889822,9.85153313 L15.996002,9.90996805 L15.996002,9.90996805 C15.99693,9.92081308 15.9976744,9.93088722 15.9982669,9.94096861 L15.9998198,9.98082404 L16,10 L16,10 L15.999,10.019 L15.9982669,10.0590314 L15.997,10.075 L15.997,10.059 L15.996,10.081 L15.9889807,10.1489612 L15.9889807,10.1489612 C15.9863719,10.165949 15.9832978,10.1833753 15.9797599,10.2007258 C15.9753602,10.2227461 15.9701664,10.2444365 15.964279,10.2658396 C15.9599023,10.2814633 15.9552713,10.2968513 15.9502619,10.3121425 C15.9438775,10.3317977 15.9366843,10.3515792 15.928896,10.3710585 L15.9063266,10.4232215 L15.9063266,10.4232215 C15.8966234,10.4438914 15.8862061,10.4642939 15.8751242,10.484277 C15.8685012,10.4963944 15.8613931,10.5086131 15.8540045,10.5207088 C15.8382813,10.546275 15.8215099,10.5711307 15.8036865,10.5951593 C15.7992821,10.6012086 15.7948255,10.6070733 15.7902954,10.6128994 C15.7849289,10.6196628 15.7826279,10.6225624 15.7803112,10.625449 L15.7071068,10.7071068 L12.7071068,13.7071068 C12.3165825,14.0976311 11.6834175,14.0976311 11.2928932,13.7071068 C10.9324093,13.3466228 10.9046797,12.7793918 11.2097046,12.3871006 L11.2928932,12.2928932 L12.585,11 L9,11 C8.44771525,11 8,10.5522847 8,10 C8,9.48716416 8.38604019,9.06449284 8.88337887,9.00672773 L9,9 L12.585,9 L11.2928932,7.70710678 C10.9023689,7.31658249 10.9023689,6.68341751 11.2928932,6.29289322 C11.6533772,5.93240926 12.2206082,5.90467972 12.6128994,6.20970461 L12.7071068,6.29289322 L15.7071068,9.29289322 L15.775,9.37 L15.767,9.359 Z"/>
</svg>

<svg xmlns="http://www.w3.org/2000/svg" viewBox="0 0 24 24">
  <path d="M19 2a3 3 0 0 1 3 2.82V19a3 3 0 0 1-2.82 3H5a3 3 0 0 1-3-2.82V5a3 3 0 0 1 2.82-3H19zm0 2H5a1 1 0 0 0-1 .88V14h2a2 2 0 0 1 2 2c0 1.1.9 2 2 2h4a2 2 0 0 0 2-2c0-1.1.9-2 2-2h2V5a1 1 0 0 0-.88-1H19zm-3.23 5.36.01.01.02.03.05.08.03.04.03.06.02.05a.99.99 0 0 1 .06.22v.09l.01.04v.09-.01.02l-.01.07a1.08 1.08 0 0 1-.06.22l-.02.05a1.02 1.02 0 0 1-.13.2l-.07.09-3 3a1 1 0 0 1-1.5-1.32l.08-.1L12.6 11H9a1 1 0 0 1-.12-2h3.71l-1.3-1.3a1 1 0 0 1 1.32-1.49l.1.08 3 3 .06.08v-.01z"/>
</svg>
